resources/icons/16px/one-to-many.svg

<svg width="16" height="16" viewBox="0 0 16 16" fill="none" xmlns="http://www.w3.org/2000/svg">
<path d="M14 3C14 2.44772 13.5523 2 13 2C12.4477 2 12 2.44772 12 3C12 3.55228 12.4477 4 13 4C13.5523 4 14 3.55228 14 3ZM10.274 4.25424C9.64501 4.48597 9.14217 4.88818 8.98058 5.69612C8.76538 6.77212 8.21625 7.50672 7.56778 8C8.21625 8.49328 8.76538 9.22788 8.98058 10.3039C9.14217 11.1118 9.64502 11.514 10.274 11.7458C10.7489 10.7153 11.7909 10 13 10C14.6569 10 16 11.3431 16 13C16 14.6569 14.6569 16 13 16C11.6146 16 10.4486 15.0609 10.1037 13.7846C9.93589 13.7413 9.76494 13.6892 9.59392 13.6266C8.51786 13.2329 7.35722 12.3851 7.01942 10.6961C6.85783 9.88818 6.35499 9.48596 5.72603 9.25423C5.25112 10.2847 4.20909 11 3 11C1.34315 11 0 9.65685 0 8C0 6.34315 1.34315 5 3 5C4.20909 5 5.25112 5.71528 5.72603 6.74577C6.35499 6.51404 6.85783 6.11182 7.01942 5.30389C7.35722 3.61487 8.51786 2.76706 9.59392 2.37338C9.76494 2.31081 9.93589 2.25873 10.1036 2.21537C10.4486 0.939058 11.6146 0 13 0C14.6569 0 16 1.34315 16 3C16 4.65685 14.6569 6 13 6C11.7909 6 10.7489 5.28473 10.274 4.25424ZM13 14C13.5523 14 14 13.5523 14 13C14 12.4477 13.5523 12 13 12C12.4477 12 12 12.4477 12 13C12 13.5523 12.4477 14 13 14ZM4 8C4 7.44772 3.55228 7 3 7C2.44772 7 2 7.44772 2 8C2 8.55229 2.44772 9 3 9C3.55228 9 4 8.55229 4 8Z" fill="black"/>
</svg>

<svg xmlns="http://www.w3.org/2000/svg" viewBox="0 0 16 16">
  <path d="M14 3a1 1 0 1 0-2 0 1 1 0 0 0 2 0m-3.726 1.254c-.629.232-1.132.634-1.293 1.442C8.765 6.772 8.216 7.506 7.568 8c.648.493 1.197 1.228 1.413 2.304.161.808.664 1.21 1.293 1.442a3 3 0 1 1-.17 2.039 5 5 0 0 1-.51-.158c-1.076-.394-2.237-1.242-2.575-2.93-.161-.809-.664-1.211-1.293-1.443a3 3 0 1 1 0-2.508c.629-.232 1.132-.634 1.293-1.442.338-1.69 1.499-2.537 2.575-2.93q.256-.094.51-.159A3.001 3.001 0 0 1 16 3a3 3 0 0 1-5.726 1.254M13 14a1 1 0 1 0 0-2 1 1 0 0 0 0 2M4 8a1 1 0 1 0-2 0 1 1 0 0 0 2 0"/>
</svg>
